src/assets/icon-orthodontics.svg

<svg xmlns="http://www.w3.org/2000/svg" width="106" height="107" viewBox="0 0 106 107" fill="none"><g clip-path="url(#clip0_150_294)"><path d="M52.993 106.486C82.2603 106.486 105.986 82.7603 105.986 53.493C105.986 24.2258 82.2603 0.5 52.993 0.5C23.7258 0.5 0 24.2258 0 53.493C0 82.7603 23.7258 106.486 52.993 106.486Z" fill="#306B4D"></path><path d="M77.2915 54.5932C78.9336 52.0573 80.7925 48.2502 81.5437 43.2566C81.7575 41.8335 80.775 40.5039 79.3513 40.2901C77.9382 40.1043 76.6015 41.0595 76.3848 42.4825C75.6493 47.3943 73.5562 50.8983 72.3744 52.5486C71.9316 53.1696 71.7809 53.9541 71.9643 54.6949C72.736 57.8039 73.3622 62.6929 71.9643 68.3157C70.6557 73.5815 68.0987 77.2736 66.1867 79.4432C66.0062 79.6471 65.8099 79.7844 65.5833 79.8685C65.0966 80.0467 64.7023 79.8738 64.4529 79.6956C63.9586 79.3387 63.6788 78.7124 63.6987 78.0172C63.8722 72.0539 62.5706 67.5265 59.8361 64.5699C58.968 63.6276 56.6581 61.1221 53.1851 61.1221C49.7092 61.1221 47.3994 63.6276 46.5336 64.5676C43.7961 67.5265 42.4952 72.0539 42.6687 78.0172C42.6885 78.7124 42.4087 79.3387 41.9145 79.6956C41.6674 79.8709 41.2754 80.0444 40.7788 79.8662C40.5574 79.7844 40.3611 79.6471 40.1806 79.4432C38.5764 77.6276 37.168 75.4579 36.1089 73.1744C35.5054 71.8705 33.9544 71.295 32.6482 71.9032C31.3419 72.5072 30.7718 74.0577 31.3776 75.3639C32.6639 78.1423 34.3113 80.6759 36.2742 82.8963C37.033 83.7545 37.9473 84.3831 38.9865 84.7628C41.0107 85.5088 43.1903 85.2033 44.9604 83.9274C46.8625 82.5575 47.9549 80.2915 47.8831 77.8648C47.7919 74.7353 48.1454 70.5029 50.3659 68.1042C50.8957 67.5312 51.9957 66.3371 53.1851 66.3371C54.3716 66.3371 55.4716 67.5312 56.0038 68.1066C58.2214 70.5029 58.5754 74.7353 58.4837 77.8648C58.4124 80.2915 59.5048 82.5575 61.4069 83.9274C62.5426 84.7447 63.8441 85.1624 65.1656 85.1624C65.904 85.1624 66.65 85.0327 67.3761 84.7652C68.4201 84.3831 69.3343 83.7545 70.0955 82.8934C72.3948 80.2886 75.463 75.8604 77.0268 69.5735C78.5188 63.5716 78.0632 58.2777 77.2915 54.5932Z" fill="white"></path><path d="M24.5151 39.9922L24.5303 40.3235C24.7009 43.7684 25.465 47.1193 26.8016 50.2797C27.4331 51.7793 28.1972 53.2257 29.0782 54.5881C28.4443 57.6159 27.9881 61.919 28.7855 66.8618C28.9917 68.1423 30.0993 69.0542 31.3571 69.0542C31.495 69.0542 31.6346 69.0437 31.7748 69.0209C33.1955 68.7919 34.1635 67.4524 33.9339 66.0316C33.1704 61.2951 33.7686 57.2514 34.4024 54.695C34.5859 53.9589 34.4381 53.1802 34.0005 52.5586C33.053 51.222 32.2462 49.7726 31.6042 48.2503C30.5065 45.653 29.8803 42.9003 29.7278 39.8164C29.5444 35.1873 31.495 31.0647 34.9504 28.7905C37.7031 26.9725 40.9622 26.733 43.8802 28.1263C44.2009 28.2788 44.5246 28.4418 44.8453 28.6153C45.7216 29.0861 46.5949 29.6335 47.4373 30.2399C50.9284 32.753 55.4436 32.7478 58.9294 30.2399C59.7724 29.6335 60.6457 29.0861 61.5167 28.6176C61.845 28.4418 62.171 28.2764 62.4841 28.1263C64.9564 26.9445 67.6787 26.9316 70.1463 28.0778C73.0976 29.453 75.3076 32.2308 76.209 35.7043C76.5735 37.0994 77.9942 37.94 79.3898 37.5708C80.7825 37.2092 81.6179 35.7855 81.2563 34.3905C79.96 29.4068 76.7131 25.3836 72.3487 23.3518C68.4399 21.5285 64.1421 21.5542 60.228 23.4254C59.8436 23.6111 59.4516 23.8074 59.0515 24.0212C57.9742 24.5996 56.9099 25.2691 55.884 26.0075C54.2238 27.2045 52.1534 27.2068 50.4833 26.0075C49.4568 25.2691 48.3925 24.5996 47.3106 24.0189C46.9133 23.8074 46.5237 23.6088 46.1288 23.4207C41.5248 21.2201 36.3992 21.5899 32.0803 24.4337C27.0867 27.7238 24.2604 33.5522 24.5151 39.9922Z" fill="white"></path><path d="M51.6575 45.3279H54.1818V50.3771H51.6575V45.3279ZM59.2314 42.8037C59.2314 41.4081 58.1022 40.2789 56.7066 40.2789H49.1332C47.7376 40.2789 46.6084 41.4081 46.6084 42.8037V52.9013C46.6084 54.2969 47.7376 55.4261 49.1332 55.4261H56.7066C58.1022 55.4261 59.2314 54.2969 59.2314 52.9013V42.8037Z" fill="white"></path><path d="M18 48.1334C18 49.3146 19.1643 50.2703 20.6037 50.2703H46.6402C48.079 50.2703 49.2439 49.3146 49.2439 48.1334C49.2439 46.9522 48.079 45.9964 46.6402 45.9964H20.6037C19.1643 45.9964 18 46.9522 18 48.1334Z" fill="white"></path><path d="M56.3541 47.8525C56.3541 49.0337 57.5184 49.9894 58.9578 49.9894H84.9943C86.4332 49.9894 87.598 49.0337 87.598 47.8525C87.598 46.6713 86.4332 45.7156 84.9943 45.7156H58.9578C57.5184 45.7156 56.3541 46.6713 56.3541 47.8525Z" fill="white"></path></g><defs><clipPath id="clip0_150_294"><rect width="105.98" height="105.98" fill="white" transform="translate(0 0.5)"></rect></clipPath></defs></svg>

<?xml version="1.0" encoding="UTF-8"?>
<svg id="Layer_1" xmlns="http://www.w3.org/2000/svg" version="1.1" xmlns:xlink="http://www.w3.org/1999/xlink" viewBox="0 0 106 107">
  <!-- Generator: Adobe Illustrator 29.8.3, SVG Export Plug-In . SVG Version: 2.1.1 Build 3)  -->
  <defs>
    <style>
      .st0 {
        fill: #fff;
      }

      .st1 {
        fill: none;
      }

      .st2 {
        fill: #336799;
      }

      .st3 {
        clip-path: url(#clippath);
      }
    </style>
    <clipPath id="clippath">
      <rect class="st1" y=".5" width="105.98" height="105.98"/>
    </clipPath>
  </defs>
  <g class="st3">
    <g>
      <path class="st2" d="M52.99,106.49c29.27,0,52.99-23.73,52.99-52.99S82.26.5,52.99.5,0,24.23,0,53.49s23.73,52.99,52.99,52.99Z"/>
      <path class="st0" d="M77.29,54.59c1.64-2.54,3.5-6.34,4.25-11.34.21-1.42-.77-2.75-2.19-2.97-1.41-.19-2.75.77-2.97,2.19-.74,4.91-2.83,8.42-4.01,10.07-.44.62-.59,1.41-.41,2.15.77,3.11,1.4,8,0,13.62-1.31,5.27-3.87,8.96-5.78,11.13-.18.2-.38.34-.6.43-.49.18-.88,0-1.13-.17-.49-.36-.77-.98-.75-1.68.17-5.96-1.13-10.49-3.86-13.45-.87-.94-3.18-3.45-6.65-3.45s-5.79,2.51-6.65,3.45c-2.74,2.96-4.04,7.49-3.86,13.45.02.7-.26,1.32-.75,1.68-.25.18-.64.35-1.14.17-.22-.08-.42-.22-.6-.42-1.6-1.82-3.01-3.99-4.07-6.27-.6-1.3-2.15-1.88-3.46-1.27-1.31.6-1.88,2.15-1.27,3.46,1.29,2.78,2.93,5.31,4.9,7.53.76.86,1.67,1.49,2.71,1.87,2.02.75,4.2.44,5.97-.84,1.9-1.37,2.99-3.64,2.92-6.06-.09-3.13.26-7.36,2.48-9.76.53-.57,1.63-1.77,2.82-1.77s2.29,1.19,2.82,1.77c2.22,2.4,2.57,6.63,2.48,9.76-.07,2.43,1.02,4.69,2.92,6.06,1.14.82,2.44,1.24,3.76,1.24.74,0,1.48-.13,2.21-.4,1.04-.38,1.96-1.01,2.72-1.87,2.3-2.6,5.37-7.03,6.93-13.32,1.49-6,1.04-11.3.26-14.98Z"/>
      <path class="st0" d="M24.52,39.99l.02.33c.17,3.44.93,6.8,2.27,9.96.63,1.5,1.4,2.95,2.28,4.31-.63,3.03-1.09,7.33-.29,12.27.21,1.28,1.31,2.19,2.57,2.19.14,0,.28-.01.42-.03,1.42-.23,2.39-1.57,2.16-2.99-.76-4.74-.17-8.78.47-11.34.18-.74.04-1.51-.4-2.14-.95-1.34-1.75-2.79-2.4-4.31-1.1-2.6-1.72-5.35-1.88-8.43-.18-4.63,1.77-8.75,5.22-11.03,2.75-1.82,6.01-2.06,8.93-.66.32.15.64.32.97.49.88.47,1.75,1.02,2.59,1.62,3.49,2.51,8.01,2.51,11.49,0,.84-.61,1.72-1.15,2.59-1.62.33-.18.65-.34.97-.49,2.47-1.18,5.19-1.19,7.66-.05,2.95,1.38,5.16,4.15,6.06,7.63.36,1.4,1.79,2.24,3.18,1.87,1.39-.36,2.23-1.79,1.87-3.18-1.3-4.98-4.54-9.01-8.91-11.04-3.91-1.82-8.21-1.8-12.12.07-.38.19-.78.38-1.18.6-1.08.58-2.14,1.25-3.17,1.99-1.66,1.2-3.73,1.2-5.4,0-1.03-.74-2.09-1.41-3.17-1.99-.4-.21-.79-.41-1.18-.6-4.6-2.2-9.73-1.83-14.05,1.01-4.99,3.29-7.82,9.12-7.57,15.56Z"/>
      <path class="st0" d="M51.66,45.33h2.52v5.05h-2.52v-5.05ZM59.23,42.8c0-1.4-1.13-2.52-2.52-2.52h-7.57c-1.4,0-2.52,1.13-2.52,2.52v10.1c0,1.4,1.13,2.52,2.52,2.52h7.57c1.4,0,2.52-1.13,2.52-2.52v-10.1Z"/>
      <path class="st0" d="M18,48.13c0,1.18,1.16,2.14,2.6,2.14h26.04c1.44,0,2.6-.96,2.6-2.14s-1.16-2.14-2.6-2.14h-26.04c-1.44,0-2.6.96-2.6,2.14Z"/>
      <path class="st0" d="M56.35,47.85c0,1.18,1.16,2.14,2.6,2.14h26.04c1.44,0,2.6-.96,2.6-2.14s-1.16-2.14-2.6-2.14h-26.04c-1.44,0-2.6.96-2.6,2.14Z"/>
    </g>
  </g>
</svg>
